src/lib/packages/icons/src/assets/filled/credit-card-minus.svg

<svg xmlns="http://www.w3.org/2000/svg" width="24" height="24" fill="none"><path fill="currentColor" d="M18 13c-2.21 0-4 1.79-4 4s1.79 4 4 4 4-1.79 4-4-1.79-4-4-4Zm1.25 4.5h-2.5c-.28 0-.5-.22-.5-.5s.22-.5.5-.5h2.5c.28 0 .5.22.5.5s-.22.5-.5.5ZM2 9.75V15c0 2 1 3 3 3h7.23c.17 0 .31-.14.31-.31A5.51 5.51 0 0 1 18 11.5c.55 0 1.07.08 1.57.23.04.01.08.02.12.02.17 0 .31-.13.31-.3v-1.7H2Zm7 5H6c-.41 0-.75-.34-.75-.75s.34-.75.75-.75h3c.41 0 .75.34.75.75s-.34.75-.75.75ZM17 4H5C3 4 2 5 2 7v1.25h18V7c0-2-1-3-3-3Z"/></svg>

<svg width="24" height="24" viewBox="0 0 24 24" fill="none" xmlns="http://www.w3.org/2000/svg">
<path d="M18 13C15.79 13 14 14.79 14 17C14 19.21 15.79 21 18 21C20.21 21 22 19.21 22 17C22 14.79 20.21 13 18 13ZM19.25 17.5H16.75C16.47 17.5 16.25 17.28 16.25 17C16.25 16.72 16.47 16.5 16.75 16.5H19.25C19.53 16.5 19.75 16.72 19.75 17C19.75 17.28 19.53 17.5 19.25 17.5ZM2 9.75V15C2 17 3 18 5 18H12.23C12.4 18 12.54 17.86 12.54 17.69C12.51 17.46 12.5 17.23 12.5 17C12.5 13.97 14.97 11.5 18 11.5C18.55 11.5 19.07 11.58 19.57 11.73C19.61 11.74 19.65 11.75 19.69 11.75C19.86 11.75 20 11.62 20 11.45V9.75H2ZM9 14.75H6C5.59 14.75 5.25 14.41 5.25 14C5.25 13.59 5.59 13.25 6 13.25H9C9.41 13.25 9.75 13.59 9.75 14C9.75 14.41 9.41 14.75 9 14.75ZM17 4H5C3 4 2 5 2 7V8.25H20V7C20 5 19 4 17 4Z" fill="currentColor"/>
</svg>
